!!!COM: Sousa, John Phillip
!!!CDT: 1854/11/05/-1932/04/08/
!!!OTL: Hail to the Spirit of Liberty
!!!ODT: 1900///
!!!PPR: The John Church Co.
!!!PPP: Philadelphia, Pennsylvania
!!!ONB: Arrangement for keyboard
**kern	**dynam	**kern	**dynam
*staff2	*staff2	*staff1	*staff1
*Ipiano	*Ipiano	*Ipiano	*Ipiano
*>[I,A,A1,A,A2,B,B1,B,B2,C,D,D1,D,D2]	*>[I,A,A1,A,A2,B,B1,B,B2,C,D,D1,D,D2]	*>[I,A,A1,A,A2,B,B1,B,B2,C,D,D1,D,D2]	*>[I,A,A1,A,A2,B,B1,B,B2,C,D,D1,D,D2]
*>norep[I,A,A2,B,B2,C,D,D2]	*>norep[I,A,A2,B,B2,C,D,D2]	*>norep[I,A,A2,B,B2,C,D,D2]	*>norep[I,A,A2,B,B2,C,D,D2]
*>I	*>I	*>I	*>I
*clefF4	*clefF4	*clefG2	*clefG2
*k[b-]	*k[b-]	*k[b-]	*k[b-]
*F:	*F:	*F:	*F:
*M2/2	*M2/2	*M2/2	*M2/2
*MM180	*MM180	*MM180	*MM180
=1-	=1-	=1-	=1-
4FF/ 4AA/ 4C/ 4F/	.	4f\ 4a\ 4cc\ 4ff\	f
8F\L	.	8f'/L	.
8F\J	.	8f'/J	.
8A\L	.	8a'/L	.
8F\	.	8f'/	.
8A\	.	8a'/	.
8c\J	.	8cc'/J	.
=2	=2	=2	=2
8f\L	.	8ff'\L	.
8c\	.	8cc'\	.
8f\	.	8ff'\	.
8A\J	.	8aa'\J	.
8c\	.	8ccc'\	.
8r	.	8r	.
4FF#/ (4F#/	.	[4dd\ 4aa\ (4ddd\	.
=3	=3	=3	=3
&(8GG/&) 8G/)	.	8dd\] 8gg\ 8bb-\)	.
8r	.	8r	.
4EE/ (4E/	.	[4cc\ 4gg\ 4ccc\	.
&(8FF/&) 8F/)	.	8cc\] 8ff\ 8aa\	.
8r	.	8r	.
4DD-/ (4D-/	.	[4b-\ 4ff\ (4bb-\	.
=4	=4	=4	=4
&(4CC/&) 4C/)	.	4b-\] 4ee\ 4gg\)	.
4r	.	4r	.
4r	.	4r	.
4r	.	(12cc\L	<
.	.	12dd\	.
.	.	12ee\J)	.
=5!|:	=5!|:	=5!|:	=5!|:
*>A	*>A	*>A	*>A
4FF/	.	4ff\	mf
4F\ 4A\ 4c\	.	8r	.
.	.	(8ff\	.
4C/	.	4gg\)	.
4G\ 4B-\ 4c\	.	8r	.
.	.	(8gg\	.
=6	=6	=6	=6
4FF/	.	8aa\)	.
.	.	8r	.
4F\ 4A\ 4c\	.	4ff\ (4fff\	<
4F\ 4A\ 4c\	.	4ee\ 4eee\	.
4F\ 4A\ 4c\	.	4dd\ 4ddd\)	.
=7	=7	=7	=7
4GG/	.	4cc\ 4ccc\	mf
4G\ 4B-\ 4c\	.	8r	.
.	.	(8bb-\	.
4C/	.	4gg\)	.
4G\ 4B-\ 4c\	.	8r	.
.	.	(8aa\	.
=8	=8	=8	=8
4FF/	.	8ff\)	.
.	.	8r	.
4F\ 4A\ 4c\	.	4e/ (4ee/	<
4F\ 4A\ 4c\	.	4d/ 4dd/	.
4F\ 4A\ 4c\	.	4c/ 4cc/)	.
=9	=9	=9	=9
4BB-/	.	4dd\	.
4G\ 4B-\	.	8r	.
.	.	(8gg\	.
4C/	.	4ee\)	.
4G\ 4B-\ 4c\	.	8r	.
.	.	(8cc\	.
=10	=10	=10	=10
4FF/	.	4ff\)	.
4F\ 4A\ 4c\	.	4g\ 4gg\	.
4F\ 4A\ 4c\	.	4a\ 4aa\	.
4F\ 4A\ 4c\	.	4cc\ 4ccc\	.
=11	=11	=11	=11
4D\	.	4ff\ 4fff\	ff
4F\ 4A\ 4d\	.	8ee'\ 8eee'\L	.
.	.	8ff'\ 8fff'\J	<
4D-\	.	4gg\ 4ggg\	.
4F\ 4G\ 4B-\	.	4ff\ 4fff\	.
=12	=12	=12	=12
4C/	.	4aa\ 4aaa\	ff
4C\ 4E\ 4G\ 4c\	.	4gg\ 4ggg\	.
4r	.	4r	.
(12CC/L	.	(12cc\L	.
12DD/	.	12dd\	.
12EE/J)	.	12ee\J)	.
=13	=13	=13	=13
4FF/	.	4ff\	.
4F\ 4A\ 4c\	.	8r	.
.	.	(8ff\	.
4C/	.	4gg\)	.
4G\ 4B-\ 4c\	.	8r	.
.	.	(8gg\	.
=14	=14	=14	=14
4FF/	.	8aa\)	.
.	.	8r	.
4F\ 4A\ 4c\	.	4ff\ (4fff\	.
4F\ 4A\ 4c\	.	4ee\ 4eee\	.
4F\ 4A\ 4c\	.	4dd\ 4ddd\)	.
=15	=15	=15	=15
4GG/	.	4cc\ 4ccc\	.
4G\ 4B-\ 4c\	.	8r	.
.	.	(8bb-\	.
4C/	.	4gg\)	.
4G\ 4B-\ 4c\	.	8r	.
.	.	(8aa\	.
=16	=16	=16	=16
4FF/	mp	8ff\)	.
.	.	8r	.
4F\ 4A\ 4c\	.	(4e/ 4ee/	.
4F\ 4A\ 4c\	.	4d/ 4dd/	.
4F\ 4A\ 4c\	.	4c/) 4cc/	.
=17	=17	=17	=17
4BB-/	.	4dd\	.
4G\ 4B-\	.	8r	.
.	.	(8gg\	.
4C/	.	4ee\)	.
4G\ 4c\ 4e\	.	8r	.
.	.	(8cc\	.
=18	=18	=18	=18
4FF/	.	4ff\	.
4F\ 4A\ 4c\	.	4aa\)	.
4F\ (4f\	.	4aa\ (4aaa\	.
4D\ 4d\	.	4ff\ 4fff\	.
=19	=19	=19	=19
4.C\ 4.c\	.	4.ee\ 4.eee\	.
8BBn\ 8Bn\	.	8dd\ 8ddd\	.
4C\ 4c\	.	4ee\ 4eee\	.
4AA\ 4A\)	.	4cc\ 4ccc\)	.
=20	=20	=20	=20
*>A1	*>A1	*>A1	*>A1
(4GG/ 4G/	.	4b-\ (4bb-\	.
4FF/ 4F/	.	4a\ 4aa\	.
4EE/) 4E/	.	4g\ 4gg\)	.
4r	.	(12cc\L	.
.	.	12dd\	.
.	.	12ee\J)	.
=21:|!	=21:|!	=21:|!	=21:|!
*>A2	*>A2	*>A2	*>A2
(4GG/ 4G/	.	4b-\ (4bb-\	.
4FF/ 4F/	.	4a\ 4aa\	.
4EE/) 4E/	.	4g\ 4gg\)	.
4r	.	4cc\ 4ccc\	.
=22!|:	=22!|:	=22!|:	=22!|:
*>B	*>B	*>B	*>B
4GG/	.	2ee^\ 2eee^\	ff
4G\ 4B-\ 4c\	.	.	.
4C/	.	2dd^\ 2ddd^\	.
4G\ 4B-\ 4c\	.	.	.
=23	=23	=23	=23
4GG/	.	2dd^\ (2ddd^\	.
4G\ 4B-\ 4c\	.	.	.
4C/	.	2ee^\)	.
4G\ 4B-\ 4c\	.	.	.
=24	=24	=24	=24
4GG/	.	2dd-^\ (2ddd-^\	.
4G\ 4B-\ 4c\	.	.	.
4C/	.	2ee^\)	.
4G\ 4B-\ 4c\	.	.	.
=25	=25	=25	=25
4GG/	.	2dd^\ (2ddd^\	.
4G\ 4B-\ 4c\	.	.	.
4C/	.	2ee^\)	.
4G\ 4B-\ 4c\	.	.	.
=26	=26	=26	=26
4FF/	.	2f\ (2ff\	.
4F\ 4A\ 4c\	.	.	.
4C/	.	4.g\ 4.gg\	.
4F\ 4A\ 4c\	.	.	.
.	.	8a\ 8aa\	.
=27	=27	=27	=27
4FF/	.	2cc\ 2ccc\	.
4F\ 4A\ 4c\	.	.	.
4C/	.	2ff\ 2fff\)	.
4F\ 4A\ 4c\	.	.	.
=28	=28	=28	=28
4F\	.	[1aa [1aaa	.
4A\ 4c\	.	.	.
4E\	.	.	.
4A\ 4c\	.	.	.
=29	=29	=29	=29
4D\	.	2aa\] 2aaa\]	.
4A\ 4c\	.	.	.
4C/	.	2aa\	p
4A\ 4c\	.	.	.
=30	=30	=30	=30
4BB-/	.	4gg\	.
4F\ 4B-\ 4d\	.	4r	.
4BB-/	.	4ff\	.
4F\ 4B-\ 4d\	.	4r	.
=31	=31	=31	=31
4BB-/	.	4dd\	.
4F\ 4B-\ 4d\	.	4r	.
4F\ 4B-\ 4d\	.	(4.dd\	.
4F\ 4B-\ 4d\	.	.	.
.	.	8ff\)	.
=32	=32	=32	=32
4D\	.	8dd'\L	.
.	.	8ee'\	.
4F\ 4A\ 4d\	.	8ff'\	.
.	.	8ee'\J	.
4F\ 4A\ 4d\	.	4dd'\	.
4F\ 4A\ 4d\	.	4ff'\	.
=33	=33	=33	=33
4BB-/	.	4dd\	.
4F\ 4B-\ 4d\	.	4r	.
4F\ 4B-\ 4d\	.	(4.dd\	<
4F\ 4B-\ 4d\	.	.	.
.	.	8ff\	.
=34	=34	=34	=34
4C/	.	4aa\)	.
4F\ 4A\ 4c\	.	4r	.
4F\ 4A\ 4c\	.	(4.ccc\	.
4F\ 4A\ 4c\	.	.	.
.	.	8cc\)	.
=35	=35	=35	=35
.	.	ccq/	.
4E\	.	4aa\	.
4B-\ 4c\	.	4r	.
.	.	b-q/	.
4C/	.	4gg\	.
4B-\ 4c\	.	4r	.
=36	=36	=36	=36
*>B1	*>B1	*>B1	*>B1
*	*	*^	*
4FF/ 4F/	.	[1ff	4r	.
4EE/ 4E/	.	.	4f\ 4a\ 4cc\	.
4DD/ 4D/	.	.	4f\ 4a\ 4cc\	.
4CC/ 4C/	.	.	4f\ 4a\ 4cc\	.
=37	=37	=37	=37	=37
4FF/	.	4ff/]	4f\ 4a\ 4cc\	.
4r	.	2.r	(8ff\L	.
.	.	.	8gg\J	.
2r	.	.	8aa\L	.
.	.	.	8bb-\	.
.	.	.	8ccc\	.
.	.	.	8ddd\J)	.
*	*	*v	*v	*
=38:|!	=38:|!	=38:|!	=38:|!
*>B2	*>B2	*>B2	*>B2
*	*	*^	*
4FF/ 4F/	.	[1ff	4r	.
4EE/ 4E/	.	.	4f\ 4a\ 4cc\	.
4DD/ 4D/	.	.	4f\ 4a\ 4cc\	.
4CC/ 4C/	.	.	4f\ 4a\ 4cc\	.
=39	=39	=39	=39	=39
4FF/ 4F/	.	4ff/]	4f\ 4a\ 4cc\	.
4r	.	2.r	4r	.
2r	.	.	(2f/	p
*	*	*v	*v	*
=40	=40	=40	=40
*>C	*>C	*>C	*>C
*k[b-e-]	*k[b-e-]	*k[b-e-]	*k[b-e-]
4BB-/	.	[1b-	.
4F\ 4B-\ 4d\	.	.	.
4F\ 4B-\ 4d\	.	.	.
4F\ 4B-\ 4d\	.	.	.
=41	=41	=41	=41
4BB-/	.	2b-\]	.
4F\ 4B-\ 4d\	.	.	.
4F\	.	2cc\	.
4A\ 4c\ 4e-\	.	.	.
=42	=42	=42	=42
4BB-/	.	[1dd	.
4F\ 4B-\ 4d\	.	.	.
4F\ 4B-\ 4d\	.	.	.
4F\ 4B-\ 4d\	.	.	.
=43	=43	=43	=43
4BB-/	.	2dd\]	.
4F\ 4B-\ 4d\	.	.	.
4F\ 4B-\ 4d\	.	2ff\)	.
4F\ 4B-\ 4d\	.	.	.
=44	=44	=44	=44
4C/	.	(2ee-\	.
4F\ 4A\ 4c\ 4e-\	.	.	.
4F\ 4A\ 4c\ 4e-\	.	2cc\	.
4F\ 4A\ 4c\ 4e-\	.	.	.
=45	=45	=45	=45
4FF/	.	2.aa\	.
4F\ 4A\ 4c\ 4e-\	.	.	.
4F\ 4A\ 4c\ 4e-\	.	.	.
4F\ 4A\ 4c\ 4e-\	.	4gg\	.
=46	=46	=46	=46
4BB-/	.	1ff	.
4F\ 4B-\ 4d\	.	.	.
4F\ 4B-\ 4d\	.	.	.
4F\ 4B-\ 4d\	.	.	.
=47	=47	=47	=47
4BB-/	.	2dd\)	.
4F\ 4B-\ 4d\	.	.	.
4F\ 4B-\ 4d\	.	2ff\	.
4F\ 4B-\ 4d\	.	.	.
=48	=48	=48	=48
4C/	.	[1ee-	.
4F\ 4A\ 4c\ 4e-\	.	.	.
4F\ 4A\ 4c\ 4e-\	.	.	.
4F\ 4A\ 4c\ 4e-\	.	.	.
=49	=49	=49	=49
4FF/	.	2ee-\]	.
4F\ 4A\ 4c\ 4e-\	.	.	.
4F\ 4A\ 4c\ 4e-\	.	2ff\	.
4F\ 4A\ 4c\ 4e-\	.	.	.
=50	=50	=50	=50
4BB-/	.	[1dd	.
4F\ 4B-\ 4d\	.	.	.
4F\ 4B-\ 4d\	.	.	.
4F\ 4B-\ 4d\	.	.	.
=51	=51	=51	=51
4BB-/	.	2dd\]	.
4F\ 4B-\ 4d\	.	.	.
4F\ 4B-\ 4d\	.	2b-\	.
4F\ 4B-\ 4d\	.	.	.
=52	=52	=52	=52
4C/	.	(4a/	.
4F\ 4A\ 4c\	.	2.aa\)	.
4F\ 4A\ 4c\	.	.	.
4F\ 4A\ 4c\	.	.	.
=53	=53	=53	=53
4C/	.	(2gg\	.
4En\ 4B-\ 4c\	.	.	.
4E\ 4B-\ 4c\	.	2cc\)	.
4E\ 4B-\ 4c\	.	.	.
=54	=54	=54	=54
4FF/	.	[1ff	.
4F\ 4A\ 4c\	.	.	.
4F\ 4A\ 4c\	.	.	.
4F\ 4A\ 4c\	.	.	.
=55	=55	=55	=55
4F\	.	2ff\]	.
4Bn\ 4d\	.	.	.
4c\ 4e-\	.	2f/	.
4A\ 4c\	.	.	.
=56	=56	=56	=56
4BB-/	.	([1b-	.
4F\ 4B-\ 4d\	.	.	.
4F\ 4B-\ 4d\	.	.	.
4F\ 4B-\ 4d\	.	.	.
=57	=57	=57	=57
4BB-/	.	2b-\]	.
4F\ 4B-\ 4d\	.	.	.
4F\	.	2cc\	.
4A\ 4c\ 4e-\	.	.	.
=58	=58	=58	=58
4BB-/	.	[1dd	.
4F\ 4B-\ 4d\	.	.	.
4F\ 4B-\ 4d\	.	.	.
4F\ 4B-\ 4d\	.	.	.
=59	=59	=59	=59
4BB-/	.	2dd\]	.
4F\ 4B-\ 4d\	.	.	.
4F\ 4B-\ 4d\	.	2ff\)	.
4F\ 4B-\ 4d\	.	.	.
=60	=60	=60	=60
4C/	.	(2ee-\	.
4F\ 4A\ 4c\ 4e-\	.	.	.
4F\ 4A\ 4c\ 4e-\	.	2cc\)	.
4F\ 4A\ 4c\ 4e-\	.	.	.
=61	=61	=61	=61
4FF/	.	2.aa\	.
4F\ 4A\ 4c\ 4e-\	.	.	.
4F\ 4A\ 4c\ 4e-\	.	.	.
4F\ 4A\ 4c\ 4e-\	.	4gg\	.
=62	=62	=62	=62
4BB-/	.	1ff	.
4F\ 4B-\ 4d\	.	.	.
4F\ 4B-\ 4d\	.	.	.
4F\ 4B-\ 4d\	.	.	.
=63	=63	=63	=63
*^	*	*	*
4BB-/	2r	.	&(2dd\&)	.
4B-\ 4d\	.	.	.	.
4r	2A-\	.	2dd\	.
4B-/ 4d/	.	.	.	.
=64	=64	=64	=64	=64
4r	(1G	.	(1ee-	.
4B-/ 4e-/	.	.	.	.
4B-/ 4e-/	.	.	.	.
4B-/ 4e-/	.	.	.	.
=65	=65	=65	=65	=65
4r	2F\)	.	2ff\	.
4B-/ 4d/	.	.	.	.
4r	2E-\	.	2gg\	.
4B-/ 4e-/	.	.	.	.
=66	=66	=66	=66	=66
4r	(1D	.	4.bb-\	.
4F/ 4B-/	.	.	.	.
.	.	.	8aa\	.
4F/ 4B-/	.	.	4.bb-\)	.
4F/ 4B-/	.	.	.	.
.	.	.	(8ccc\	.
=67	=67	=67	=67	=67
4r	1E-)	.	4bb-\	>
4G-/ 4B-/	.	.	4gg-\	.
4G-/ 4B-/	.	.	4ff\	.
4G-/ 4B-/	.	.	4ee-\	.
*v	*v	*	*	*
=68	=68	=68	=68
4FF/	.	[2dd\	.
4F\ 4B-\ 4d\	.	.	.
4F\ 4B-\ 4d\	.	12dd\L]	.
.	.	12ee-\	.
.	.	12een\J	.
4F\ 4B-\ 4d\	.	12ff\L	<
.	.	12ee-\	.
.	.	12dd\J)	.
=69	=69	=69	=69
4FF/	.	2cc\	.
4F\ 4A\ 4e-\	.	.	.
4F\ 4A\ 4e-\	.	2cc\	>
4F\ 4A\ 4e-\	.	.	.
=70	=70	=70	=70
4BB-/	.	[1b-	.
4F\ 4B-\ 4d\	.	.	.
4F\ 4B-\ 4d\	.	.	.
4F\ 4B-\ 4d\	.	.	.
=71	=71	=71	=71
4F\ 4B-\ 4d\	.	4b-\]	.
4r	.	4r	.
(2BBB-/ 2BB-/	.	2r	.
=72!|:	=72!|:	=72!|:	=72!|:
*>D	*>D	*>D	*>D
4AAA/) 4AA/	.	2r	.
4DD/ 4D/	.	.	.
4AAA/ 4AA/	.	4r	.
4r	.	8r	.
.	.	(16cc\LL	ff
.	.	16dd\JJ	.
=73	=73	=73	=73
2r	.	8ee-\L	.
.	.	8dd\	.
.	.	8cc\	.
.	.	8dd\J	.
4r	.	4ee-\)	.
4D\ 4F#\ 4A\ 4d\	.	4dd\	.
=74	=74	=74	=74
2r	.	(8ee-\L	.
.	.	8dd\	.
.	.	8cc\	.
.	.	8dd\J)	.
4r	.	4ee-\	.
4D\ 4F#\ 4A\ 4d\	.	4dd\	.
=75	=75	=75	=75
4AA/	.	1r	.
4DD/ 4D/	.	.	.
4.AAA/ 4.AA/	.	.	.
(16AA/LL	.	.	.
16BB-/JJ	.	.	.
=76	=76	=76	=76
4C/)	.	2r	.
4FF/ 4F/	.	.	.
4CC/ 4C/	.	4r	.
4r	.	8r	.
.	.	(16ee-\LL	.
.	.	16ff\JJ	.
=77	=77	=77	=77
2r	.	8gg-\L)	.
.	.	8ff\	.
.	.	8ee-\	.
.	.	8ff\J	.
4r	.	4gg-\	.
4F\ 4A\ 4c\ 4f\	.	4ff\	.
=78	=78	=78	=78
2r	.	8gg-\L	.
.	.	8ff\	.
.	.	8ee-\	.
.	.	8ff\J	.
4r	.	4gg-\	.
4F\ 4A\ 4c\ 4f\	.	4ff\	.
=79	=79	=79	=79
4C/	.	2r	.
4FF/ 4F/	.	.	.
4CC/ 4C/	.	4r	.
4r	.	8r	.
.	.	(16ee-\LL	.
.	.	16ff\JJ	.
=80	=80	=80	=80
2r	.	8gg-\L)	.
.	.	8ff'\	.
.	.	8ee-'\	.
.	.	8dd'\J	.
4r	.	[2cc\	.
4BBB-/ 4BB-/	.	.	.
=81	=81	=81	=81
4AAA/ 4AA/	.	4cc\]	.
4GGG/ 4GG/	.	4b-\	.
4FFF/ 4FF/	.	4.a/	.
4r	.	.	.
.	.	(16ee-\LL	.
.	.	16ff\JJ	.
=82	=82	=82	=82
2r	.	8gg-\L)	.
.	.	8ff'\	.
.	.	8ee-'\	.
.	.	8dd'\J	.
4r	.	[2cc\	.
4BBB-/ 4BB-/	.	.	.
=83	=83	=83	=83
4AAA/ 4AA/	.	4cc\]	.
4GGG/ 4GG/	.	4b-\	.
4.FFF/ 4.FF/	.	4.a/	.
(16E-\LL	.	(16ee-\LL	.
16F\JJ	.	16ff\JJ	.
=84	=84	=84	=84
8G-\L)	.	8gg-\L)	.
8F\	.	8ff'\	.
8E-\	.	8ee-'\	.
8D\J	.	8dd'\J	.
4C/	.	4cc\	.
4BB-/	.	4b-\	.
=85	=85	=85	=85
4AA/	.	4a^/	.
4GG/ 4G/	.	4g^/	<
4FF/ 4F/	.	4f^/	.
4EEn/ 4En/	.	4en^/	.
=86	=86	=86	=86
4EE-/ 4E-/	.	4e-^/	.
4DD/ 4D/	.	4d^/	.
4CC/ 4C/	.	4c^/	.
4BBB-/ 4BB-/	.	4B-^/	.
=87	=87	=87	=87
4AAA/ 4AA/	.	4A^/	.
4GGG/ 4GG/	.	4r	.
4AAA/ 4AA/	.	4r	.
4FF/	.	4f\ 4ff\	ff
=88	=88	=88	=88
4BB-/	.	[1b- [1bb-	.
4F\ 4B-\ 4d\	.	.	.
4F\ 4B-\ 4d\	.	.	.
4F\ 4B-\ 4d\	.	.	.
=89	=89	=89	=89
4BB-/	.	2b-\] 2bb-\]	.
4F\ 4B-\ 4d\	.	.	.
4F\	.	2cc\ 2ccc\	.
4A\ 4c\ 4e-\	.	.	.
=90	=90	=90	=90
4BB-/	.	[1dd [1ddd	.
4F\ 4B-\ 4d\	.	.	.
4F\ 4B-\ 4d\	.	.	.
4F\ 4B-\ 4d\	.	.	.
=91	=91	=91	=91
4BB-/	.	2dd\] 2ddd\]	.
4F\ 4B-\ 4d\	.	.	.
4F\ 4B-\ 4d\	.	2ff\ 2fff\	.
4F\ 4B-\ 4d\	.	.	.
=92	=92	=92	=92
4C/	.	2ee-\ 2eee-\	.
4F\ 4A\ 4c\ 4e-\	.	.	.
4F\ 4A\ 4c\ 4e-\	.	2cc\ 2ccc\	.
4F\ 4A\ 4c\ 4e-\	.	.	.
=93	=93	=93	=93
4FF/	.	2.aa\ 2.aaa\	.
4F\ 4A\ 4c\ 4e-\	.	.	.
4F\ 4A\ 4c\ 4e-\	.	.	.
4F\ 4A\ 4c\ 4e-\	.	4gg\ 4ggg\	.
=94	=94	=94	=94
4BB-/	.	1ff (1fff	.
4F\ 4B-\ 4d\	.	.	.
4F\ 4B-\ 4d\	.	.	.
4F\ 4B-\ 4d\	.	.	.
=95	=95	=95	=95
4BB-/	.	&(2dd\&) 2ddd\)	.
4F\ 4B-\ 4d\	.	.	.
4F\ 4B-\ 4d\	.	2ff\ 2fff\	.
4F\ 4B-\ 4d\	.	.	.
=96	=96	=96	=96
4C/	.	[1ee- [1eee-	.
4F\ 4A\ 4c\ 4e-\	.	.	.
4F\ 4A\ 4c\ 4e-\	.	.	.
4F\ 4A\ 4c\ 4e-\	.	.	.
=97	=97	=97	=97
4FF/	.	2ee-\] 2eee-\]	.
4F\ 4A\ 4c\ 4e-\	.	.	.
4F\ 4A\ 4c\ 4e-\	.	2ff\ 2fff\	.
4F\ 4A\ 4c\ 4e-\	.	.	.
=98	=98	=98	=98
4BB-/	.	[1dd [1ddd	.
4F\ 4B-\ 4d\	.	.	.
4F\ 4B-\ 4d\	.	.	.
4F\ 4B-\ 4d\	.	.	.
=99	=99	=99	=99
4BB-/	.	2dd\] 2ddd\]	.
4F\ 4B-\ 4d\	.	.	.
4F\ 4B-\ 4d\	.	2bb-\	.
4F\ 4B-\ 4d\	.	.	.
=100	=100	=100	=100
4C/	.	(4aa\	.
4F\ 4A\ 4c\	.	2.aa\ 2.aaa\)	.
4F\ 4A\ 4c\	.	.	.
4F\ 4A\ 4c\	.	.	.
=101	=101	=101	=101
4C/	.	2gg\ 2ggg\	.
4En\ 4B-\ 4c\	.	.	.
4E\ 4B-\ 4c\	.	2cc\ 2ccc\	.
4E\ 4B-\ 4c\	.	.	.
=102	=102	=102	=102
4FF/	.	[1ff [1fff	.
4F\ 4A\ 4c\	.	.	.
4F\ 4A\ 4c\	.	.	.
4F\ 4A\ 4c\	.	.	.
=103	=103	=103	=103
4F\	.	2ff\] 2fff\]	.
4Bn\ 4d\	.	.	.
4c\ 4e-\	.	2ff\	.
4A\ 4c\	.	.	.
=104	=104	=104	=104
4BB-/	.	[1b- [1bb-	.
4F\ 4B-\ 4d\	.	.	.
4F\ 4B-\ 4d\	.	.	.
4F\ 4B-\ 4d\	.	.	.
=105	=105	=105	=105
4BB-/	.	2b-\] 2bb-\]	.
4F\ 4B-\ 4d\	.	.	.
4F\	.	2cc\ 2ccc\	.
4A\ 4c\ 4e-\	.	.	.
=106	=106	=106	=106
4BB-/	.	[1dd [1ddd	.
4F\ 4B-\ 4d\	.	.	.
4F\ 4B-\ 4d\	.	.	.
4F\ 4B-\ 4d\	.	.	.
=107	=107	=107	=107
4BB-/	.	2dd\] 2ddd\]	.
4F\ 4B-\ 4d\	.	.	.
4F\ 4B-\ 4d\	.	2ff\ 2fff\	.
4F\ 4B-\ 4d\	.	.	.
=108	=108	=108	=108
4C/	.	2ee-\ 2eee-\	.
4F\ 4A\ 4c\ 4e-\	.	.	.
4F\ 4A\ 4c\ 4e-\	.	2cc\ 2ccc\	.
4F\ 4A\ 4c\ 4e-\	.	.	.
=109	=109	=109	=109
4FF/	.	2.aa\ 2.aaa\	.
4F\ 4A\ 4c\ 4e-\	.	.	.
4F\ 4A\ 4c\ 4e-\	.	.	.
4F\ 4A\ 4c\ 4e-\	.	4gg\ 4ggg\	.
=110	=110	=110	=110
4BB-/	.	1ff (1fff	.
4F\ 4B-\ 4d\	.	.	.
4F\ 4B-\ 4d\	.	.	.
4F\ 4B-\ 4d\	.	.	.
=111	=111	=111	=111
*^	*	*	*
4BB-/	2r	.	&(2dd\&) 2ddd\)	.
4B-\ 4d\	.	.	.	.
4r	2A-\	.	2ff\ 2fff\	.
4B-/ 4d/	.	.	.	.
=112	=112	=112	=112	=112
4r	1G	.	1ee- 1eee-	.
4B-/ 4e-/	.	.	.	.
4B-/ 4e-/	.	.	.	.
4B-/ 4e-/	.	.	.	.
=113	=113	=113	=113	=113
4r	2F\	.	2ff\ 2fff\	<
4B-/ 4d/	.	.	.	.
4r	2E-\	.	2gg\ 2ggg\	.
4G/ 4B-/ 4e-/	.	.	.	.
*v	*v	*	*	*
=114	=114	=114	=114
4D\	.	4.bb-\ (4.bbb-\	.
4F\ 4B-\	.	.	.
.	.	8aa\ 8aaa\	.
4F\ 4B-\	.	4.bb-\ 4.bbb-\	.
4F\ 4B-\	.	.	.
.	.	8ccc\ 8cccc\)	.
=115	=115	=115	=115
4EE-/ 4E-/	.	4bb-^\ 4bbb-^\	.
4G-\ 4B-\ 4e-\	.	4gg-^\ 4ggg-^\	.
4G-\ 4B-\ 4e-\	.	4ff^\ 4fff^\	.
4G-\ 4B-\ 4e-\	.	4ee-^\ 4eee-^\	.
=116	=116	=116	=116
4FF/	.	[2dd\ (2ddd\	.
4F\ 4B-\ 4d\	.	.	.
4F\ 4B-\ 4d\	.	12dd\L]	.
.	.	12ee-\	.
.	.	12een\J	.
4F\ 4B-\ 4d\	.	12ff\L	.
.	.	12ee-\	.
.	.	12dd\J)	.
=117	=117	=117	=117
4FF/	.	2cc\	.
4F\ 4A\ 4c\ 4e-\	.	.	.
4F\ 4A\ 4c\ 4e-\	.	2cc\ 2ccc\	.
4F\ 4A\ 4c\ 4e-\	.	.	.
=118	=118	=118	=118
*>D1	*>D1	*>D1	*>D1
4BB-/	.	[1b- [1bb-	.
4F\ 4B-\ 4d\	.	.	.
4F\ 4B-\ 4d\	.	.	.
4F\ 4B-\ 4d\	.	.	.
=119	=119	=119	=119
4F\ 4B-\ 4d\	.	4b-\] 4bb-\]	.
4r	.	4r	.
2BBB-/ 2BB-/	.	2r	.
=120:|!	=120:|!	=120:|!	=120:|!
*>D2	*>D2	*>D2	*>D2
4BB-/	.	[1b- [1bb-	.
4F\ 4B-\ 4d\	.	.	.
4F\ 4B-\ 4d\	.	.	.
4F\ 4B-\ 4d\	.	.	.
=121	=121	=121	=121
4F\ 4B-\ 4d\	.	4b-\] 4bb-\]	.
4r	.	4r	.
4BBB-^/ 4BB-^/	.	4b-^\ 4dd^\ 4ff^\ 4bb-^\	.
4r	.	4r	.
==	==	==	==
*-	*-	*-	*-
!!!ENC: Craig Stuart Sapp
!!!END: 2007/03/11/
